public/images/cy6.svg

<svg width="100" height="100" viewBox="0 0 100 100" fill="none" xmlns="http://www.w3.org/2000/svg">
<path d="M1 50.0576H2.911V51.7287H2.96C3.156 51.0898 4.479 49.7626 6.439 49.7626C7.86 49.6643 9.232 50.4508 9.82 51.7779C10.506 50.5491 11.829 49.7626 13.25 49.7626C16.582 49.7626 17.366 52.122 17.366 54.5796V60.8711H15.308V54.8745C15.308 53.2525 14.965 51.7287 13.005 51.7287C11.045 51.7287 10.261 53.0559 10.261 54.9728V60.9203H8.203V55.2186C8.203 53.1542 7.909 51.6796 5.949 51.6796C4.479 51.6796 3.156 52.8101 3.156 55.2186V60.8711H1V50.0576Z" fill="black"/>
<path d="M20.8451 56.2508C20.8451 58.1678 22.6091 59.3966 24.4711 59.3966C25.7451 59.3966 26.6271 58.7576 27.4601 57.7746L28.9791 58.9542C27.8521 60.4288 26.2841 61.1661 24.1771 61.1661C20.7471 61.1661 18.6401 58.6593 18.6401 55.4644C18.5421 52.4169 20.9431 49.861 24.0301 49.7627C24.1281 49.7627 24.2261 49.7627 24.2751 49.7627C28.0971 49.7627 29.5181 52.6627 29.5181 55.4644V56.2017L20.8451 56.2508ZM27.3131 54.5796C27.2641 52.761 26.2841 51.4339 24.1771 51.4339C22.4131 51.4339 20.9431 52.8102 20.8451 54.5796H27.3131Z" fill="black"/>
<path d="M36.6231 51.8272H33.6831V56.7425C33.6831 57.9713 33.6831 59.2492 35.2021 59.2492C35.6921 59.2984 36.2311 59.1509 36.6721 58.9052V60.773C36.0841 61.0187 35.4471 61.1662 34.8101 61.1662C31.6251 61.1662 31.5761 59.2001 31.5761 57.4797V51.8272H29.2241V50.0577H31.5761V47.0103H33.6341V50.0577H36.5741L36.6231 51.8272Z" fill="black"/>
<path d="M38.142 51.3847C39.318 50.3525 40.837 49.7627 42.405 49.7627C45.59 49.7627 46.913 51.5322 46.913 53.4V58.9542C46.913 59.6424 46.962 60.2813 47.011 60.9203H45.198C45.149 60.3796 45.149 59.7898 45.149 59.2983H45.1C44.218 60.7237 42.944 61.2152 41.327 61.2152C39.318 61.2152 37.554 60.0847 37.554 57.9712C37.554 55.1695 40.249 54.1864 43.532 54.1864H45.1V53.6949C45.1 52.5644 44.316 51.4339 42.503 51.4339C40.935 51.4339 40.2 52.122 39.416 52.6627L38.142 51.3847ZM43.973 55.7102C42.013 55.7102 39.661 56.0542 39.661 57.7746C39.661 59.0034 40.543 59.5441 41.964 59.5441C44.218 59.5441 45.051 57.8729 45.051 56.3983V55.7102H43.973Z" fill="black"/>
<path d="M54.9001 52.761C54.3611 52.0729 53.5771 51.6796 52.6951 51.6796C51.7151 51.6796 50.8821 52.122 50.8821 52.9085C50.8821 54.2356 52.7441 54.383 53.6261 54.5796C55.3901 55.022 56.7621 55.7102 56.7621 57.7254C56.7621 60.183 54.5081 61.1661 52.4011 61.1661C50.6371 61.1661 49.2651 60.6746 48.2361 59.2491L49.7551 57.9712C50.4411 58.6593 51.1761 59.2491 52.3521 59.2491C53.3811 59.2491 54.5081 58.8068 54.5081 57.8729C54.5081 56.6441 52.7931 56.3983 51.9111 56.2017C50.1471 55.7593 48.5791 55.2186 48.5791 53.1051C48.5791 50.8441 50.6371 49.7627 52.6951 49.7627C54.1161 49.7627 55.5861 50.2542 56.3701 51.5322L54.9001 52.761Z" fill="black"/>
<path d="M58.085 50.0576H60.143V51.5813H60.192C61.074 50.4017 62.495 49.7627 63.965 49.7627C67.297 49.7627 69.453 52.2695 69.453 55.4644C69.453 58.6593 67.297 61.1661 63.965 61.1661C62.495 61.2152 61.074 60.5271 60.192 59.2983H60.143V65H58.085V50.0576ZM60.192 55.4644C60.192 57.6271 61.564 59.2491 63.72 59.2491C65.876 59.2491 67.248 57.7254 67.248 55.4644C67.248 53.2034 65.876 51.6796 63.671 51.6796C61.466 51.6796 60.192 53.3017 60.192 55.4644Z" fill="black"/>
<path d="M71.0701 43.6187H73.1281V60.9203H71.0701V43.6187Z" fill="black"/>
<path d="M79.8409 49.812C82.9769 49.812 85.5249 52.4171 85.5249 55.5629C85.5249 58.7086 82.9279 61.2646 79.7919 61.2646C76.6559 61.2646 74.1079 58.6595 74.1079 55.5137C74.1079 52.3679 76.6559 49.812 79.7919 49.812H79.8409ZM79.8409 59.2493C81.9969 59.2493 83.3689 57.6764 83.3689 55.4646C83.3689 53.2527 81.9969 51.6798 79.8409 51.6798C77.6849 51.6798 76.3129 53.2527 76.3129 55.4646C76.3129 57.6764 77.6359 59.2493 79.8409 59.2493Z" fill="black"/>
<path d="M87.583 44.6509C88.416 44.6509 89.102 45.339 89.102 46.1746C89.102 47.0102 88.416 47.6983 87.583 47.6983C86.75 47.6983 86.064 47.0102 86.064 46.1746C86.064 45.339 86.75 44.6509 87.583 44.6509ZM86.554 50.0577H88.612V60.9204H86.554V50.0577Z" fill="black"/>
<path d="M96.7459 51.8272H93.8059V56.7425C93.8059 57.9713 93.8059 59.2492 95.3249 59.2492C95.8149 59.2984 96.3539 59.1509 96.7949 58.9052V60.773C96.2069 61.0187 95.5699 61.1662 94.9329 61.1662C91.7479 61.1662 91.6989 59.2001 91.6989 57.4797V51.8272H89.3469V50.0577H91.6989V47.0103H93.7569V50.0577H96.6969V51.8272H96.7459Z" fill="black"/>
<path d="M97.3831 43.7661C98.2651 43.7661 99.0001 44.5034 99.0001 45.3881C99.0001 46.2729 98.2651 47.0102 97.3831 47.0102C96.5011 47.0102 95.7661 46.2729 95.7661 45.3881C95.7661 44.5034 96.5011 43.7661 97.3831 43.7661ZM97.3831 46.7153C98.1181 46.7153 98.7551 46.0763 98.7551 45.339C98.7551 44.6017 98.1181 43.9627 97.3831 43.9627C96.6481 43.9627 96.0111 44.6017 96.0111 45.339C96.0111 46.0763 96.6481 46.7153 97.3831 46.7153ZM97.0401 46.2729H96.7951V44.4051H97.4811C97.8731 44.4051 98.0691 44.5526 98.0691 44.8966C98.0691 45.1915 97.8731 45.3881 97.5791 45.4373L98.1671 46.2237H97.9221L97.3831 45.4373H97.0401V46.2729ZM97.0401 45.2407H97.3341C97.5791 45.2407 97.8731 45.2407 97.8731 44.8966C97.8731 44.6509 97.6771 44.6017 97.4811 44.6017H97.0401V45.2407Z" fill="black"/>
<path d="M5.802 39.49H3.891L4.283 37.6222H6.047C6.635 37.6222 6.978 37.9171 6.978 38.4086C6.978 38.9984 6.488 39.49 5.9 39.49C5.851 39.49 5.851 39.49 5.802 39.49ZM8.938 38.212C8.938 36.934 7.958 36.0001 6.243 36.0001H2.715L1 43.8154H2.96L3.548 41.112H4.675L5.802 43.8154H7.762L6.537 41.0137C7.909 40.8171 8.938 39.6374 8.938 38.212Z" fill="black"/>
<path d="M12.27 40.9154L13.936 38.0154L14.573 40.9154H12.27ZM13.152 36.0001L8.644 43.8154H10.604L11.339 42.5374H14.965L15.259 43.8154H17.219L15.455 36.0001H13.152Z" fill="black"/>
<path d="M22.756 39.49H21.041L21.433 37.6222H22.952C23.54 37.6222 23.932 37.9171 23.932 38.4086C23.883 39.0476 23.393 39.49 22.756 39.49ZM23.148 36.0001H19.865L18.15 43.8154H20.11L20.698 41.112H22.854C24.471 41.1611 25.794 39.9323 25.843 38.3103C25.843 38.2611 25.843 38.2611 25.843 38.212C25.843 36.934 24.814 36.0001 23.148 36.0001Z" fill="black"/>
<path d="M29.567 36.0001H27.656L25.941 43.8154H27.852L29.567 36.0001Z" fill="black"/>
<path d="M43.532 36.0001H37.407L37.701 36.295C38.387 37.1798 38.779 38.212 38.73 39.3425C38.73 41.0628 38.044 42.6849 36.77 43.8154H40.543L42.307 39.3425H40.053L40.445 37.6222H44.904L42.552 43.8154H43.483C45.639 43.8154 47.06 42.0459 47.06 39.8832C47.06 37.7205 45.688 36.0001 43.532 36.0001Z" fill="#E95F26"/>
<path d="M32.703 42.1934H31.625L32.605 37.6222H33.634C34.565 37.573 35.398 38.3595 35.398 39.2934C35.398 39.3425 35.398 39.3917 35.398 39.49C35.447 40.9646 34.271 42.1442 32.85 42.1934C32.801 42.1934 32.752 42.1934 32.703 42.1934ZM36.623 37.2781C35.839 36.3934 34.712 35.951 33.536 36.0002H31.037L29.322 43.8154H32.458C33.487 43.8154 34.467 43.6188 35.349 43.1273C36.623 42.2917 37.358 40.8663 37.309 39.3425C37.309 38.6052 37.064 37.8679 36.623 37.2781Z" fill="black"/>
</svg>

<svg xmlns="http://www.w3.org/2000/svg" width="100" height="100" fill="none"><path fill="#000" d="M1 50.058h1.911v1.67h.049c.196-.638 1.519-1.965 3.479-1.965 1.421-.099 2.793.688 3.381 2.015a3.95 3.95 0 0 1 3.43-2.015c3.332 0 4.116 2.359 4.116 4.817v6.291h-2.058v-5.997c0-1.622-.343-3.145-2.303-3.145s-2.744 1.327-2.744 3.244v5.947H8.203V55.22c0-2.065-.294-3.54-2.254-3.54-1.47 0-2.793 1.131-2.793 3.54v5.652H1zM20.845 56.25c0 1.918 1.764 3.147 3.626 3.147 1.274 0 2.156-.64 2.99-1.622l1.518 1.18c-1.127 1.474-2.695 2.211-4.802 2.211-3.43 0-5.537-2.507-5.537-5.702-.098-3.047 2.303-5.603 5.39-5.701h.245c3.822 0 5.243 2.9 5.243 5.701v.738zm6.468-1.67c-.049-1.819-1.029-3.146-3.136-3.146a3.336 3.336 0 0 0-3.332 3.146zM36.623 51.827h-2.94v4.916c0 1.228 0 2.506 1.52 2.506.49.05 1.028-.098 1.47-.344v1.868a4.9 4.9 0 0 1-1.863.393c-3.185 0-3.234-1.966-3.234-3.686v-5.653h-2.352v-1.77h2.352V47.01h2.058v3.048h2.94zM38.142 51.385a6.5 6.5 0 0 1 4.263-1.622c3.185 0 4.508 1.77 4.508 3.637v5.554c0 .688.049 1.327.098 1.966h-1.813c-.049-.54-.049-1.13-.049-1.622H45.1c-.882 1.426-2.156 1.917-3.773 1.917-2.009 0-3.773-1.13-3.773-3.244 0-2.801 2.695-3.785 5.978-3.785H45.1v-.491c0-1.13-.784-2.261-2.597-2.261-1.568 0-2.303.688-3.087 1.229zm5.831 4.325c-1.96 0-4.312.344-4.312 2.065 0 1.228.882 1.77 2.303 1.77 2.254 0 3.087-1.672 3.087-3.147v-.688zM54.9 52.761a2.76 2.76 0 0 0-2.205-1.081c-.98 0-1.813.442-1.813 1.228 0 1.328 1.862 1.475 2.744 1.672 1.764.442 3.136 1.13 3.136 3.145 0 2.458-2.254 3.441-4.36 3.441-1.765 0-3.137-.491-4.166-1.917l1.52-1.278c.685.688 1.42 1.278 2.596 1.278 1.03 0 2.156-.442 2.156-1.376 0-1.229-1.715-1.475-2.597-1.671-1.764-.443-3.332-.983-3.332-3.097 0-2.26 2.058-3.342 4.116-3.342 1.421 0 2.891.491 3.675 1.77zM58.085 50.058h2.058v1.523h.049c.882-1.18 2.303-1.818 3.773-1.818 3.332 0 5.488 2.507 5.488 5.701 0 3.195-2.156 5.702-5.488 5.702a4.47 4.47 0 0 1-3.773-1.868h-.049V65h-2.058zm2.107 5.406c0 2.163 1.372 3.785 3.528 3.785s3.528-1.524 3.528-3.785c0-2.26-1.372-3.784-3.577-3.784s-3.479 1.622-3.479 3.784M71.07 43.619h2.058V60.92H71.07zM79.84 49.812c3.137 0 5.685 2.605 5.685 5.75 0 3.147-2.597 5.703-5.733 5.703s-5.684-2.605-5.684-5.751 2.548-5.702 5.684-5.702zm0 9.437c2.157 0 3.529-1.573 3.529-3.784 0-2.212-1.372-3.785-3.528-3.785s-3.528 1.573-3.528 3.785c0 2.211 1.323 3.784 3.528 3.784M87.583 44.65c.833 0 1.519.689 1.519 1.525 0 .835-.686 1.523-1.519 1.523a1.53 1.53 0 0 1-1.519-1.523c0-.836.686-1.524 1.519-1.524m-1.029 5.408h2.058V60.92h-2.058zM96.746 51.827h-2.94v4.916c0 1.228 0 2.506 1.519 2.506.49.05 1.029-.098 1.47-.344v1.868a4.9 4.9 0 0 1-1.862.393c-3.185 0-3.234-1.966-3.234-3.686v-5.653h-2.352v-1.77h2.352V47.01h2.058v3.048h2.94v1.77zM97.383 43.766c.882 0 1.617.737 1.617 1.622s-.735 1.622-1.617 1.622a1.634 1.634 0 0 1-1.617-1.622c0-.885.735-1.622 1.617-1.622m0 2.95c.735 0 1.372-.64 1.372-1.377s-.637-1.376-1.372-1.376-1.372.639-1.372 1.376.637 1.376 1.372 1.376m-.343-.443h-.245v-1.868h.686c.392 0 .588.148.588.492 0 .294-.196.491-.49.54l.588.787h-.245l-.539-.787h-.343zm0-1.032h.294c.245 0 .54 0 .54-.344 0-.246-.197-.295-.393-.295h-.44zM5.802 39.49H3.891l.392-1.868h1.764c.588 0 .931.295.931.787 0 .59-.49 1.081-1.078 1.081zm3.136-1.278c0-1.278-.98-2.212-2.695-2.212H2.715L1 43.815h1.96l.588-2.703h1.127l1.127 2.703h1.96l-1.225-2.801a2.81 2.81 0 0 0 2.401-2.802M12.27 40.915l1.666-2.9.637 2.9zM13.152 36l-4.508 7.815h1.96l.735-1.278h3.626l.294 1.278h1.96L15.455 36zM22.756 39.49h-1.715l.392-1.868h1.519c.588 0 .98.295.98.787-.049.639-.539 1.081-1.176 1.081m.392-3.49h-3.283l-1.715 7.815h1.96l.588-2.703h2.156c1.617.05 2.94-1.18 2.989-2.802v-.098c0-1.278-1.029-2.212-2.695-2.212M29.567 36h-1.911l-1.715 7.815h1.911z"/><path fill="#E95F26" d="M43.532 36h-6.125l.294.295c.686.885 1.078 1.917 1.029 3.047 0 1.72-.686 3.343-1.96 4.473h3.773l1.764-4.472h-2.254l.392-1.72h4.459l-2.352 6.192h.931c2.156 0 3.577-1.77 3.577-3.932S45.688 36 43.532 36"/><path fill="#000" d="M32.703 42.193h-1.078l.98-4.57h1.029c.931-.05 1.764.736 1.764 1.67v.197c.049 1.475-1.127 2.654-2.548 2.703zm3.92-4.915c-.784-.885-1.911-1.327-3.087-1.278h-2.499l-1.715 7.815h3.136c1.029 0 2.009-.196 2.891-.688a4.34 4.34 0 0 0 1.96-3.785 3.48 3.48 0 0 0-.686-2.064"/></svg>
